.local/share/icons/Gruvbox-Plus-Dark/mimetypes/scalable/image-x-adobe-dng.svg

<svg width="256" height="256" viewBox="0 0 256 256" fill="none" xmlns="http://www.w3.org/2000/svg">
<g opacity="0.4" filter="url(#filter0_f)">
<path d="M55.0839 15.5636H155.608L216.009 75.7129L216.011 224.609C216.011 233.52 208.749 240.737 199.838 240.737H55.0838C46.1734 240.737 39 233.564 39 224.654V31.6474C39 22.737 46.1734 15.5636 55.0838 15.5636H55.0839Z" fill="#282828"/>
</g>
<path d="M55.0839 15H155.608L216.009 75.1493L216.011 224.045C216.011 232.956 208.749 240.174 199.838 240.174H55.0838C46.1734 240.174 39 233 39 224.09V31.0838C39 22.1734 46.1734 15 55.0838 15H55.0839Z" fill="#ebdbb2"/>
<path opacity="0.2" d="M199.838 240.174C208.749 240.174 216.011 232.956 216.011 224.046L216.01 186.5H39V224.09C39 233 46.1734 240.174 55.0838 240.174H199.838Z" fill="url(#paint0_linear)"/>
<path fill-rule="evenodd" clip-rule="evenodd" d="M155.608 20.3191H55.0839C49.1112 20.3191 44.3191 25.1111 44.3191 31.0838V224.09C44.3191 230.063 49.1111 234.855 55.0838 234.855H199.838C205.83 234.855 210.692 229.999 210.692 224.046V75.1493L155.608 20.3191ZM155.608 15H55.0839C46.1735 15 39 22.1734 39 31.0838V224.09C39 233 46.1734 240.174 55.0838 240.174H199.838C208.749 240.174 216.011 232.956 216.011 224.045L216.009 75.1493L155.608 15Z" fill="url(#paint1_linear)"/>
<path d="M89.025 198V226H97.505C107.785 226 111.145 218.4 111.145 212C111.145 205.04 107.465 198 97.665 198H89.025ZM98.185 221.48H93.825V202.52H98.625C103.945 202.52 106.185 207.28 106.185 212C106.185 216.4 104.145 221.48 98.185 221.48ZM138.715 226V198H133.955V215.4C133.955 216 133.995 216.8 134.075 217.52C133.715 216.8 133.315 216 132.915 215.4L121.595 198H116.955V226H121.715V208.32C121.715 207.68 121.675 206.88 121.595 206.24C121.955 206.96 122.395 207.76 122.755 208.32L134.355 226H138.715ZM156.789 226.48C162.589 226.48 167.069 222.64 167.069 215.52V211.64H157.269V216.16H162.189V216.6C162.189 219.52 159.909 221.84 156.789 221.84C151.589 221.84 149.469 217.04 149.469 212C149.469 207.64 151.149 202.16 156.789 202.16C159.429 202.16 161.069 203.76 162.309 205.6L166.589 203.16C164.749 200.24 162.189 197.52 156.789 197.52C148.389 197.52 144.509 205.16 144.509 212C144.509 219.32 148.149 226.48 156.789 226.48Z" fill="url(#paint2_linear)"/>
<path d="M140.33 48.5126L125.885 89.1348L182.857 79.6793C174.443 63.7059 158.905 51.9504 140.33 48.5126ZM184.638 87.7582L141.659 95.7137L178.478 139.647C188.312 124.455 190.847 105.292 184.59 87.7548L184.638 87.7582ZM172.311 145.217L143.808 112.55L123.595 165.945C141.871 166.725 159.979 159.318 172.251 145.217H172.311ZM115.682 163.428L130.16 122.806L73.1542 132.262C81.5965 148.25 97.1543 160.006 115.682 163.428ZM71.3731 124.212L114.337 116.256L77.5176 72.3215C67.6987 87.5304 65.1498 106.677 71.4065 124.215L71.3731 124.212ZM83.6776 66.7837L112.18 99.4504L132.392 46.0559C114.129 45.2759 96.0098 52.6826 83.7531 66.7837" fill="url(#paint3_linear)"/>
<path opacity="0.25" d="M155.608 17V61.2306C155.608 70.141 162.867 77.1605 171.777 77.1605L216.009 77.1493V75.1493L155.608 17Z" fill="#282828"/>
<path d="M155.608 15V59.2306C155.608 68.141 162.867 75.1605 171.777 75.1605L216.009 75.1493L155.608 15Z" fill="url(#paint4_linear)"/>
<defs>
<filter id="filter0_f" x="23.8778" y="0.441412" width="207.255" height="255.418" filterUnits="userSpaceOnUse" color-interpolation-filters="sRGB">
<feFlood flood-opacity="0" result="BackgroundImageFix"/>
<feBlend mode="normal" in="SourceGraphic" in2="BackgroundImageFix" result="shape"/>
<feGaussianBlur stdDeviation="7.5611" result="effect1_foregroundBlur"/>
</filter>
<linearGradient id="paint0_linear" x1="39" y1="186.5" x2="39" y2="240.174" gradientUnits="userSpaceOnUse">
<stop offset="1e-07" stop-color="#fe8019"/>
<stop offset="1" stop-color="#d65d0e"/>
</linearGradient>
<linearGradient id="paint1_linear" x1="39" y1="15" x2="39" y2="240.174" gradientUnits="userSpaceOnUse">
<stop offset="1e-07" stop-color="#fe8019"/>
<stop offset="1" stop-color="#d65d0e"/>
</linearGradient>
<linearGradient id="paint2_linear" x1="39" y1="187" x2="39" y2="240" gradientUnits="userSpaceOnUse">
<stop offset="1e-07" stop-color="#fe8019"/>
<stop offset="1" stop-color="#d65d0e"/>
</linearGradient>
<linearGradient id="paint3_linear" x1="68" y1="46" x2="68" y2="166.001" gradientUnits="userSpaceOnUse">
<stop offset="1e-07" stop-color="#fe8019"/>
<stop offset="1" stop-color="#d65d0e"/>
</linearGradient>
<linearGradient id="paint4_linear" x1="155.608" y1="15" x2="155.608" y2="75.1605" gradientUnits="userSpaceOnUse">
<stop offset="1e-07" stop-color="#fe8019"/>
<stop offset="1" stop-color="#d65d0e"/>
</linearGradient>
</defs>
</svg>

<svg width="256" height="256" fill="none" version="1.1" viewBox="0 0 256 256" xmlns="http://www.w3.org/2000/svg">
  <path d="m55.08 15h100.5l60.4 60.15 2e-3 148.9c0 8.911-7.262 16.13-16.17 16.13h-144.8c-8.91 0-16.08-7.174-16.08-16.08v-193c0-8.91 7.173-16.08 16.08-16.08h1e-4z" fill="#ebdbb2"/>
  <path d="m199.8 240.2c8.911 0 16.17-7.218 16.17-16.13l-1e-3 -37.55h-177v37.59c0 8.91 7.173 16.08 16.08 16.08h144.8z" fill="url(#paint0_linear)" opacity=".2"/>
  <path d="m155.6 20.32h-100.5c-5.973 0-10.76 4.792-10.76 10.76v193c0 5.973 4.792 10.76 10.76 10.76h144.8c5.992 0 10.85-4.856 10.85-10.81v-148.9l-55.08-54.83zm0-5.319h-100.5c-8.91 0-16.08 7.173-16.08 16.08v193c0 8.91 7.173 16.08 16.08 16.08h144.8c8.911 0 16.17-7.218 16.17-16.13l-2e-3 -148.9-60.4-60.15z" clip-rule="evenodd" fill="url(#paint1_linear)" fill-rule="evenodd"/>
  <path d="m89.02 198v28h8.48c10.28 0 13.64-7.6 13.64-14 0-6.96-3.68-14-13.48-14h-8.64zm9.16 23.48h-4.36v-18.96h4.8c5.32 0 7.56 4.76 7.56 9.48 0 4.4-2.04 9.48-8 9.48zm40.53 4.52v-28h-4.76v17.4c0 0.6 0.04 1.4 0.12 2.12-0.36-0.72-0.76-1.52-1.16-2.12l-11.32-17.4h-4.64v28h4.76v-17.68c0-0.64-0.04-1.44-0.12-2.08 0.36 0.72 0.8 1.52 1.16 2.08l11.6 17.68h4.36zm18.07 0.48c5.8 0 10.28-3.84 10.28-10.96v-3.88h-9.8v4.52h4.92v0.44c0 2.92-2.28 5.24-5.4 5.24-5.2 0-7.32-4.8-7.32-9.84 0-4.36 1.68-9.84 7.32-9.84 2.64 0 4.28 1.6 5.52 3.44l4.28-2.44c-1.84-2.92-4.4-5.64-9.8-5.64-8.4 0-12.28 7.64-12.28 14.48 0 7.32 3.64 14.48 12.28 14.48z" fill="url(#paint2_linear)"/>
  <path d="m140.3 48.51-14.44 40.62 56.97-9.456c-8.414-15.97-23.95-27.73-42.53-31.17zm44.31 39.25-42.98 7.956 36.82 43.93c9.834-15.19 12.37-34.36 6.112-51.89l0.048 0.0034zm-12.33 57.46-28.5-32.67-20.21 53.4c18.28 0.78 36.38-6.627 48.66-20.73h0.06zm-56.63 18.21 14.48-40.62-57.01 9.456c8.442 15.99 24 27.74 42.53 31.17zm-44.31-39.22 42.96-7.956-36.82-43.93c-9.819 15.21-12.37 34.36-6.111 51.89l-0.0334-3e-3zm12.3-57.43 28.5 32.67 20.21-53.39c-18.26-0.78-36.38 6.627-48.64 20.73" fill="url(#paint3_linear)"/>
  <path d="m155.6 17v44.23c0 8.91 7.259 15.93 16.17 15.93l44.23-0.0112v-2l-60.4-58.15z" fill="#282828" opacity=".25"/>
  <path d="m155.6 15v44.23c0 8.91 7.259 15.93 16.17 15.93l44.23-0.0112-60.4-60.15z" fill="url(#paint4_linear)"/>
  <defs>
    <linearGradient id="paint0_linear" x1="39" x2="39" y1="186.5" y2="240.2" gradientUnits="userSpaceOnUse">
      <stop stop-color="#fe8019" offset="1e-7"/>
      <stop stop-color="#d65d0e" offset="1"/>
    </linearGradient>
    <linearGradient id="paint1_linear" x1="39" x2="39" y1="15" y2="240.2" gradientUnits="userSpaceOnUse">
      <stop stop-color="#fe8019" offset="1e-7"/>
      <stop stop-color="#d65d0e" offset="1"/>
    </linearGradient>
    <linearGradient id="paint2_linear" x1="39" x2="39" y1="187" y2="240" gradientUnits="userSpaceOnUse">
      <stop stop-color="#fe8019" offset="1e-7"/>
      <stop stop-color="#d65d0e" offset="1"/>
    </linearGradient>
    <linearGradient id="paint3_linear" x1="68" x2="68" y1="46" y2="166" gradientUnits="userSpaceOnUse">
      <stop stop-color="#fe8019" offset="1e-7"/>
      <stop stop-color="#d65d0e" offset="1"/>
    </linearGradient>
    <linearGradient id="paint4_linear" x1="155.6" x2="155.6" y1="15" y2="75.16" gradientUnits="userSpaceOnUse">
      <stop stop-color="#fe8019" offset="1e-7"/>
      <stop stop-color="#d65d0e" offset="1"/>
    </linearGradient>
  </defs>
</svg>
